X:1
T:Aging Gracefully
N:Composed for Carlyn Bromann's dance of the same name in RSCDS Book 47
N:Chords by Mady Newfield
M:C|
L:1/8
C:T. S. Macdonald
K:G
%%text Slowly when not danced
B>c | "G"d2 B>d "G"g>dB>G | "C"c>A (c/B/)A/G/ "D"F<AA>B | "G"d>cB<d "G"g<dB>G | "C"E>c "D"(B/A/)G/F/ "G"G2 B>c |
      "G"d2 B>d "G"g>dB>G | "C"c>A c/B/A/G/ "D"F/G/A/F/ D>B | "G"d>cB<d "G"g<dB>G | "C"E>c "D"(B/A/)G/F/ "G"G3 ||
d   | "G"g>de>B "Am"c<AA>B | "C"c/B/c/d/ e/d/c/B/ "D"A/G/F/E/ D>d | "G"g>de<B "Am"c<AB>G | "C"E>C "D"(B,/C/)D/B,/ "G"G,3 d |
      "G"g>de>B "Am"c<AA>B | "C"c>BA>G "D"F<DD>C | "G"B,<DG,>B, "C"C<E"Am"A,>c | "G"B>G "D"(B/A/)G/F/ "G"G3 ||
d   | "G"b>fg>e "Bm"f<dd>B | "Am"c/B/c/d/ e/f/g/a/ "D"f<dd>a | "Em"b>ge<g "D"a>gf<d | "C"e>c "D"(B/c/)d/c/ "G"B<GG>d |
      "G"b>fg>e "Bm"f<dd>B | "Am"c>BA>G "D"F<AD>C | "G"B,<DG,>B, "C"C<EA,>c | "G"B>G "D"(B/A/)G/F/ "G"G2  ||
B>c | "G"d2 g>d b>gd<B | "C"e<cA>G "D"F<AD>C | "G"B,>DG>B "Am"c>BA<G | "D"F>G (A/G/)F/E/ D2 B>c |
      "G"d2 g>d b>gd>B | "C"e<cA>G "D"F<AD>C | "G"B,<DG,>B, "C"C<EA,>c | "G"B>G "D"(B/A/)G/F/ "G"G3 |]

